X:1
T:Title
%%score { ( 1 4 ) | ( 2 3 ) }
L:1/8
M:3/4
K:Eb
V:1 treble nm="Grand Piano"
V:4 treble 
V:2 bass 
V:3 bass 
V:1
 z2 z2[Q:1/4=92] B,2 | [B,G]F A3 G | [G,E]F G3 G | [DB]3 A GF |[M:2/4] [G,E]4 |[M:1/4] [G,B,]2 | %6
[M:3/4] [B,G]F A3 G | [G,E]F G2 [EG]2 | [DF]3 B =A[Ec] |[M:2/4] [DB]4 |[M:1/4] B2 |[M:3/4] e4 z2 | %12
 B6 | B4 z2 |[M:2/4] d4 |[M:1/4] c z |[M:3/4] B4 z2 | c4 z2 | B4 z2 |[M:2/4] E4 |] %20
V:2
 z2 z2 G,2 | z A, C3 B, | z A, B,3 E | z2 z C B,A, |[M:2/4] [E,,B,,]4 |[M:1/4] z2 | %6
[M:3/4] z A, C3 B, | z A, B,2 [C,E,]2 | z2 z D C[F,,G,] |[M:2/4] [B,,F,]4 |[M:1/4] [B,A]2 | %11
[M:3/4] [E,B,][E,B,] [E,B,][E,B,E] [E,CE]<[E,A,E] | [E,G,E][E,G,] [B,,F,]<[B,,A,] [E,G,][E,G,E] | %13
 [D,B,][D,B,] [D,B,][D,B,] [C,=A,][C,A,] |[M:2/4] [B,,B,][B,,B,] [B,,B,]2 |[M:1/4] z[K:treble] B | %16
[M:3/4][K:bass] [E,E][E,E] [E,E][E,B,] [E,G,][E,G,] | [A,,A,][A,,A,] [A,,A,]2 [=A,,_G,]2 | %18
 [B,,G,][B,,G,] [B,,G,][B,,G,] [B,,B,]<[B,,A,B,] |[M:2/4] [E,G,B,]<[E,A,] [E,G,]2 |] %20
V:3
 x6 | [E,,E,]6 | [E,,E,]6 | B,,6 |[M:2/4] x4 |[M:1/4] x2 |[M:3/4] [E,,E,]6 | D,,4 z2 | %8
 [B,,F,]4 z2 |[M:2/4] x4 |[M:1/4] x2 |[M:3/4] x6 | x6 | x6 |[M:2/4] x4 |[M:1/4] B,,2[K:treble] | %16
[M:3/4][K:bass] x6 | x6 | x6 |[M:2/4] x4 |] %20
V:4
 x6 | x6 | x6 | x6 |[M:2/4] x4 |[M:1/4] x2 |[M:3/4] x6 | E,4 z2 | x6 |[M:2/4] x4 |[M:1/4] x2 | %11
[M:3/4] GG GG A<c | z E D<F EB | FF F[FB] [Fc][Fe] |[M:2/4] FF F2 |[M:1/4] [DA]2 | %16
[M:3/4] GG G[Ge] [EB][E_d] | EE E2 [Ee]2 | EE EE [EG]<F |[M:2/4] z/ C3/2 B,2 |] %20

